icons/AppleColor.svg

<svg width="16" height="16" viewBox="0 0 16 16" fill="none" xmlns="http://www.w3.org/2000/svg">
<path d="M13.8751 11.2225C13.6574 11.7256 13.3996 12.1887 13.1009 12.6144C12.6938 13.1948 12.3605 13.5966 12.1036 13.8197C11.7054 14.1859 11.2788 14.3735 10.8219 14.3841C10.4939 14.3841 10.0984 14.2908 9.63795 14.1015C9.17601 13.913 8.75149 13.8197 8.36333 13.8197C7.95623 13.8197 7.51962 13.913 7.05262 14.1015C6.5849 14.2908 6.20811 14.3895 5.92004 14.3993C5.48192 14.4179 5.04522 14.225 4.60933 13.8197C4.33112 13.5771 3.98313 13.1611 3.56625 12.5718C3.11898 11.9424 2.75126 11.2127 2.46318 10.3807C2.15466 9.48207 2 8.61187 2 7.76941C2 6.80437 2.20853 5.97204 2.6262 5.27455C2.95445 4.7143 3.39115 4.27236 3.93771 3.94793C4.48427 3.62349 5.07482 3.45816 5.7108 3.44759C6.05879 3.44759 6.51513 3.55523 7.08222 3.76678C7.64771 3.97904 8.01081 4.08668 8.17 4.08668C8.28902 4.08668 8.69238 3.96081 9.37618 3.70989C10.0228 3.47718 10.5686 3.38083 11.0157 3.41879C12.2272 3.51656 13.1374 3.99415 13.7427 4.85456C12.6592 5.51108 12.1232 6.4306 12.1339 7.61021C12.1436 8.52903 12.477 9.29363 13.132 9.90072C13.4289 10.1825 13.7605 10.4003 14.1293 10.5549C14.0493 10.7869 13.9649 11.0091 13.8751 11.2225ZM11.0966 0.28857C11.0966 1.00873 10.8335 1.68115 10.309 2.30353C9.67617 3.04342 8.91068 3.47096 8.08058 3.4035C8.07 3.3171 8.06387 3.22617 8.06387 3.13062C8.06387 2.43926 8.36484 1.69937 8.89931 1.09441C9.16614 0.788111 9.50551 0.533425 9.91705 0.330257C10.3277 0.130121 10.7161 0.0194417 11.0814 0.000488281C11.0921 0.096763 11.0966 0.193053 11.0966 0.28857Z" fill="black"/>
</svg>

<svg width="16" height="16" fill="none" xmlns="http://www.w3.org/2000/svg"><path d="M13.875 11.223a7.819 7.819 0 0 1-.774 1.391c-.407.58-.74.983-.997 1.206-.399.366-.825.553-1.282.564-.328 0-.724-.093-1.184-.283-.462-.188-.887-.281-1.275-.281-.407 0-.843.093-1.31.281-.468.19-.845.288-1.133.298-.438.019-.875-.174-1.31-.58-.279-.242-.627-.658-1.044-1.247a8.633 8.633 0 0 1-1.103-2.191C2.155 9.482 2 8.61 2 7.769c0-.965.209-1.797.626-2.494a3.673 3.673 0 0 1 1.312-1.327 3.528 3.528 0 0 1 1.773-.5c.348 0 .804.107 1.371.319.566.212.929.32 1.088.32.119 0 .522-.126 1.206-.377.647-.233 1.193-.33 1.64-.291 1.211.098 2.121.575 2.727 1.436-1.084.656-1.62 1.576-1.61 2.755.01.919.344 1.684.999 2.29.297.282.629.5.997.655-.08.232-.164.454-.254.668zM11.097.289c0 .72-.263 1.392-.788 2.015-.633.74-1.398 1.167-2.228 1.1a2.241 2.241 0 0 1-.017-.273c0-.692.3-1.432.835-2.037A3.217 3.217 0 0 1 9.917.33c.41-.2.8-.31 1.164-.33.011.097.016.193.016.289z" fill="#000"/></svg>
